www/assets/icons/laptop_mac.svg

<svg xmlns="http://www.w3.org/2000/svg" width="24" height="24" viewBox="0 0 24 24" fill='currentColor'><path d="M20 18.5c1.1 0 1.99-.9 1.99-2l.01-11c0-1.1-.9-2-2-2H4c-1.1 0-2 .9-2 2v11c0 1.1.9 2 2 2H0c0 1.1.9 2 2 2h20c1.1 0 2-.9 2-2zM4 5.5h16v11H4zm8 14c-.55 0-1-.45-1-1s.45-1 1-1 1 .45 1 1-.45 1-1 1"/></svg>

<svg width="24" height="24" viewBox="0 0 24 24" xmlns="http://www.w3.org/2000/svg" fill='currentColor'><path d="M20 18.5C21.1 18.5 21.99 17.6 21.99 16.5L22 5.5C22 4.4 21.1 3.5 20 3.5H4C2.9 3.5 2 4.4 2 5.5V16.5C2 17.6 2.9 18.5 4 18.5H0C0 19.6 0.9 20.5 2 20.5H22C23.1 20.5 24 19.6 24 18.5H20ZM4 5.5H20V16.5H4V5.5ZM12 19.5C11.45 19.5 11 19.05 11 18.5C11 17.95 11.45 17.5 12 17.5C12.55 17.5 13 17.95 13 18.5C13 19.05 12.55 19.5 12 19.5Z"/></svg>
